img/home/sm/Southwest.svg

<svg xmlns="http://www.w3.org/2000/svg" width="37" height="34" viewBox="0 0 37 34">
  <g fill="none" fill-rule="evenodd" transform="translate(-18 -19)">
    <rect width="72" height="72" fill="none"/>
    <g fill="#48484F" transform="translate(18 19)">
      <path d="M35.8940976 12.4633884C36.3652167 9.82066116 36.0113493 7.29595041 34.8346079 4.94721074 32.6564744.661735537 28.3012639.0158057851 25.9467248.0158057851 23.4157802.0158057851 20.8256817.896714876 19.2950728 1.77762397 26.770655 5.8871281 34.3043349 11.3475 35.8940976 12.4633884M.637278849 8.11890496C-.776078359 15.81 5.64001408 25.2629132 18.2355831 33.6009917 20.8848356 31.8391736 23.2393747 30.0194008 25.3583541 28.1985744 23.0038151 26.2028306 9.8188191 15.1640702.637278849 8.11890496M27.0653685 26.4957645C31.1258656 22.5622314 33.8923698 18.5696901 35.1293214 14.8121281 33.4804047 13.4022521 26.0639764 7.06097107 18.1183315 2.4225 16.4704711 1.36561983 14.175086.0158057851 10.4663437.0158057851 8.05265075.0158057851 3.75659412.661735537 1.57846067 4.94721074 1.22564953 5.65214876.930936027 6.35708678.754530456 7.06097107 10.4663437 13.5792769 24.7108295 24.6759917 27.0653685 26.4957645"/>
    </g>
  </g>
</svg>

<svg xmlns="http://www.w3.org/2000/svg" width="37" height="34"><g fill="none" fill-rule="evenodd"><path d="M-18-19h72v72h-72z"/><path d="M35.894 12.463c.471-2.642.117-5.167-1.06-7.516C32.657.662 28.302.016 25.948.016c-2.531 0-5.121.88-6.652 1.762 7.476 4.11 15.01 9.57 16.6 10.685M.636 8.12C-.776 15.81 5.64 25.263 18.236 33.6a72.49 72.49 0 0 0 7.122-5.402C23.004 26.203 9.818 15.164.638 8.119m26.427 18.377c4.06-3.934 6.827-7.926 8.064-11.684-1.649-1.41-9.065-7.751-17.01-12.39C16.47 1.366 14.174.016 10.465.016c-2.413 0-6.71.646-8.888 4.931-.352.705-.647 1.41-.823 2.114 9.711 6.518 23.956 17.615 26.31 19.435" fill="#48484F"/></g></svg>
